! Fonte Fancy

       IF "Classic" = text_FontType THEN  !ver como ficou versão que fiz no pc do Paulo
	        IF "A" = character OR "a" = character THEN
	            ! Instructions to draw letter "A"

		 target_aMidInf1Esq12 := Offs (target_aInfEsq2, 0, comprimento_letras/10, 0);
		 target_oMidInf1Esq12 := Offs (target_aMidInf1Esq12, 0, 0, offsetZ);
		 target_oMidInf1Dir12 := Offs (target_oSup1Centro, -altura_letras, 3*comprimento_letras/10);
		 target_aMidInf1Dir12 := Offs (target_oMidInf1Dir12, 0, 0, offsetZ);

		    ! movement
                 MoveJ target_aInf1Esq1, v100, fine, pen\WObj:=Workobject_Paper;
                 MoveL target_oInf1Esq1, v100, fine, pen\WObj:=Workobject_Paper;
                 MoveL target_oInfEsq2, v100, fine, pen\WObj:=Workobject_Paper;
                 MoveL target_aInfEsq2, v100, fine, pen\WObj:=Workobject_Paper;
                 MoveL target_aMidInf1Esq12, v100, fine, pen\WObj:=Workobject_Paper;
                 MoveL target_oMidInf1Esq12, v100, fine, pen\WObj:=Workobject_Paper;
                 MoveL target_oSup1Centro, v100, fine, pen\WObj:=Workobject_Paper;
                 MoveL target_oMidInf1Dir12, v100, fine, pen\WObj:=Workobject_Paper;
                 MoveL target_aMidInf1Dir12, v100, fine, pen\WObj:=Workobject_Paper;
                 MoveL target_aInf1Dir1, v100, fine, pen\WObj:=Workobject_Paper;
                 MoveL target_oInf1Dir1, v100, fine, pen\WObj:=Workobject_Paper;
                 MoveL target_oInf1Dir2, v100, fine, pen\WObj:=Workobject_Paper;
                 MoveL target_aInf1Dir2, v100, fine, pen\WObj:=Workobject_Paper;
                 MoveL target_aCentroEsq2, v100, fine, pen\WObj:=Workobject_Paper;
                 MoveL target_oCentroEsq2, v100, fine, pen\WObj:=Workobject_Paper;
                 MoveL target_oCentroDir1, v100, fine, pen\WObj:=Workobject_Paper;
                 MoveL target_aCentroDir1, v100, fine, pen\WObj:=Workobject_Paper;
                 MoveL target_aSup1Esq2, v100, fine, pen\WObj:=Workobject_Paper;
                 MoveL target_oSup1Esq2, v100, fine, pen\WObj:=Workobject_Paper;
                 MoveL target_oSup1Dir1, v100, fine, pen\WObj:=Workobject_Paper;
                 MoveL target_aSup1Dir1, v100, fine, pen\WObj:=Workobject_Paper;

                
	        ELSEIF "B" = character OR "b" = character THEN
	            ! Instructions to draw letter "B"
                MoveJ target_oInf2Esq1, v100, fine, pen\WObj:=Workobject_Paper;
                MoveJ target_oInf1Esq1, v100, fine, pen\WObj:=Workobject_Paper;
                MoveJ target_oInf1Esq2, v100, fine, pen\WObj:=Workobject_Paper;
                MoveL target_oSup1Esq2, v100, fine, pen\WObj:=Workobject_Paper;
                MoveL target_oSup1Centro, v100, z0, pen\WObj:=Workobject_Paper;
                MoveC target_oSup2Dir2, target_oCentroCentro, v100, fine, pen\WObj:=Workobject_Paper;
                MoveL target_oCentroEsq1, v100, fine, pen\WObj:=Workobject_Paper;
                MoveL target_oCentroCentro, v100, fine, pen\WObj:=Workobject_Paper;
                MoveC target_oInf2Dir2 ,target_oInf1Centro, v100, fine, pen\WObj:=Workobject_Paper;
                MoveL target_oInf1Esq2, v100, fine, pen\WObj:=Workobject_Paper;
                MoveL target_aInf1Esq2, v100, z0, pen\WObj:=Workobject_Paper;
                MoveL target_aInf1Esq2, v100, z0, pen\WObj:=Workobject_Paper;
                MoveL target_aSup1Esq2, v100, z0, pen\WObj:=Workobject_Paper;
                MoveL target_oSup1Esq2, v100, z0, pen\WObj:=Workobject_Paper;
                MoveL target_oSup1Esq1, v100, z0, pen\WObj:=Workobject_Paper;
                MoveL target_oSup2Esq1, v100, z0, pen\WObj:=Workobject_Paper;
                MoveL target_aSup2Esq1, v100, z0, pen\WObj:=Workobject_Paper;

            
	        ELSEIF "C" = character OR "c" = character THEN
! FALTA -> ver como ficou a última versão na letra clássica e adaptar
                
	        ELSEIF "D" = character OR "d" = character THEN
	            ! Instructions to draw letter "D"
! FALTA -> ver como ficou a última versão na letra clássica e adaptar

	        ELSEIF "E" = character OR "e" = character THEN
	            ! Instructions to draw letter "E"
    MoveJ target_aInf2Dir2, v100, fine, pen\WObj:=Workobject_Paper;
    MoveJ target_oInf2Dir2, v100, fine, pen\WObj:=Workobject_Paper;
    MoveL target_oInf1Dir2, v100, fine, pen\WObj:=Workobject_Paper;
    MoveL target_oInf1Esq1, v100, fine, pen\WObj:=Workobject_Paper;
    MoveL target_oSup1Esq1, v100, fine, pen\WObj:=Workobject_Paper;
    MoveL target_oSup1Dir2, v100, fine, pen\WObj:=Workobject_Paper;
    MoveL target_oSup2Dir2, v100, fine, pen\WObj:=Workobject_Paper;
    MoveL target_aSup2Dir2, v100, fine, pen\WObj:=Workobject_Paper;
    MoveL target_aCentroEsq1, v100, fine, pen\WObj:=Workobject_Paper;
    MoveL target_oCentroEsq1, v100, fine, pen\WObj:=Workobject_Paper;
    MoveL target_oCentroCentro, v100, fine, pen\WObj:=Workobject_Paper;
    MoveL target_oSup2Centro, v100, fine, pen\WObj:=Workobject_Paper;
    MoveL target_oInf2Centro, v100, fine, pen\WObj:=Workobject_Paper;
    MoveL target_aInf2Centro, v100, fine, pen\WObj:=Workobject_Paper;

    MoveL target_aCentroCentro, v100, fine, pen\WObj:=Workobject_Paper; 

	        ELSEIF "F" = character OR "f" = character THEN
	            ! Instructions to draw letter "F"
    MoveL target_oInf1Esq1, v100, fine, pen\WObj:=Workobject_Paper;
    MoveL target_oSup1Esq1, v100, fine, pen\WObj:=Workobject_Paper;
    MoveL target_oSup1Dir2, v100, fine, pen\WObj:=Workobject_Paper;
    MoveL target_oSup2Dir2, v100, fine, pen\WObj:=Workobject_Paper;
    MoveL target_aSup2Dir2, v100, fine, pen\WObj:=Workobject_Paper;
    MoveL target_aCentroEsq1, v100, fine, pen\WObj:=Workobject_Paper;
    MoveL target_oCentroEsq1, v100, fine, pen\WObj:=Workobject_Paper;
    MoveL target_oCentroCentro, v100, fine, pen\WObj:=Workobject_Paper;
    MoveL target_oSup2Centro, v100, fine, pen\WObj:=Workobject_Paper;
    MoveL target_oInf2Centro, v100, fine, pen\WObj:=Workobject_Paper;
    MoveL target_aInf2Centro, v100, fine, pen\WObj:=Workobject_Paper;


	        ELSEIF "G" = character OR "g" = character THEN
	            ! Instructions to draw letter "G"
!   MoveJ target_aInf1Esq1, v100, fine, pen\WObj:=Workobject_Paper;
    MoveJ target_aSup2Centro, v100, fine, pen\WObj:=Workobject_Paper;
    MoveJ target_oSup2Centro, v100, fine, pen\WObj:=Workobject_Paper;
    MoveL target_oInf2Centro, v100, fine, pen\WObj:=Workobject_Paper;
    MoveL target_oCentroCentro, v100, fine, pen\WObj:=Workobject_Paper;
    MoveL target_oCentroDir2, v100, fine, pen\WObj:=Workobject_Paper;
    MoveL target_oInf2Dir2, v100, fine, pen\WObj:=Workobject_Paper;
    MoveC target_oInf1Dir1, v100, fine, pen\WObj:=Workobject_Paper; 
    MoveL target_oInf1Esq2, v100, fine, pen\WObj:=Workobject_Paper;
    MoveC target_oInf2Esq1, v100, fine, pen\WObj:=Workobject_Paper;
    MoveL target_oSup2Esq1, v100, fine, pen\WObj:=Workobject_Paper;
    MoveC target_oSup1Esq2, v100, fine, pen\WObj:=Workobject_Paper;
    MoveL target_oSup1Dir1, v100, fine, pen\WObj:=Workobject_Paper;
    MoveC target_oSup2Dir2, v100, fine, pen\WObj:=Workobject_Paper;
    MoveL target_oSup2Dir1, v100, fine, pen\WObj:=Workobject_Paper;
    MoveL target_aSup2Dir1, v100, fine, pen\WObj:=Workobject_Paper;

	        ELSEIF "H" = character OR "h" = character THEN
	            ! Instructions to draw letter "H"

		 target_oMidSup1Esq12 := Offs (target_oMidInf1Esq12, altura_letras, 0, 0);
		 target_aMidSup1Esq12 := Offs (target_oMidSupEsq12, 0, 0, -offsetZ);
		 target_aMidSup1Dir12 := Offs (target_aSup1Dir1, 0, 3*comprimento_letras/10, 0);
		 target_oMidSup1Dir12 := Offs (target_aMidSup1Dir12, 0, 0, offsetZ);
		 target_aMidCentroEsq12 := Offs (target_aInf1Dir1, altura_letras/2, -9*comprimento_letras/10, 0);
		 target_oMidCentroEsq12 := Offs (target_aMidCentroEsq12, 0, 0, offsetZ);
		 target_oMidCentroDir12 := Offs (target_oMidCentroEsq12, 0, 4*comprimento_letras/5, 0);
		 target_aMidCentroDir12 := Offs (target_oMidCentroDir12, 0, 0, -offsetZ);

    MoveJ target_aInf1Esq1, v100, fine, pen\WObj:=Workobject_Paper;
    MoveL target_oInf1Esq1, v100, fine, pen\WObj:=Workobject_Paper;
    MoveL target_oInf1Esq2, v100, fine, pen\WObj:=Workobject_Paper;
    MoveL target_aInf1Esq2, v100, fine, pen\WObj:=Workobject_Paper;
    MoveL target_aMidInf1Esq12, v100, fine, pen\WObj:=Workobject_Paper;
    MoveL target_oMidInf1Esq12, v100, fine, pen\WObj:=Workobject_Paper;
    MoveL target_oMidSup1Esq12, v100, fine, pen\WObj:=Workobject_Paper;
    MoveL target_aMidSup1Esq12, v100, fine, pen\WObj:=Workobject_Paper;
    MoveL target_aSup1Esq1, v100, fine, pen\WObj:=Workobject_Paper;
    MoveL target_oSup1Esq1, v100, fine, pen\WObj:=Workobject_Paper;
    MoveL target_oSup1Esq2, v100, fine, pen\WObj:=Workobject_Paper;
    MoveL target_aSup1Esq2, v100, fine, pen\WObj:=Workobject_Paper;
    MoveL target_aSup1Dir2, v100, fine, pen\WObj:=Workobject_Paper;
    MoveL target_oSup1Dir2, v100, fine, pen\WObj:=Workobject_Paper;
    MoveL target_oSup1Dir1, v100, fine, pen\WObj:=Workobject_Paper;
    MoveL target_aSup1Dir1, v100, fine, pen\WObj:=Workobject_Paper;
    MoveL target_aMidSup1Dir12, v100, fine, pen\WObj:=Workobject_Paper;
    MoveL target_oMidSup1Dir12, v100, fine, pen\WObj:=Workobject_Paper;
    MoveL target_oMidInf1Dir12, v100, fine, pen\WObj:=Workobject_Paper;
    MoveL target_aMidInf1Dir12, v100, fine, pen\WObj:=Workobject_Paper;
    MoveL target_aInf1Dir2, v100, fine, pen\WObj:=Workobject_Paper;
    MoveL target_oInf1Dir2, v100, fine, pen\WObj:=Workobject_Paper;
    MoveL target_oInf1Dir1, v100, fine, pen\WObj:=Workobject_Paper;
    MoveL target_aInf1Dir1, v100, fine, pen\WObj:=Workobject_Paper;
    MoveL target_aMidCentroEsq12, v100, fine, pen\WObj:=Workobject_Paper;
    MoveL target_oMidCentroEsq12, v100, fine, pen\WObj:=Workobject_Paper;
    MoveL target_oMidCentroDir12, v100, fine, pen\WObj:=Workobject_Paper;
    MoveL target_aMidCentroDir12, v100, fine, pen\WObj:=Workobject_Paper;

---------------//------------ FALTA AS LETRAS ABAIXO

	        ELSEIF "I" = character OR "i" = character THEN
	            ! Instructions to draw letter "I"
    MoveJ target_aSup1Esq1, v100, fine, pen\WObj:=Workobject_Paper;
    MoveL target_aSup1Centro, v100, fine, pen\WObj:=Workobject_Paper;
    MoveL target_oSup1Centro, v100, fine, pen\WObj:=Workobject_Paper;
    MoveL target_oInf1Centro, v100, fine, pen\WObj:=Workobject_Paper;
    MoveL target_aInf1Centro, v100, fine, pen\WObj:=Workobject_Paper;


	        ELSEIF "J" = character OR "j" = character THEN
	            ! Instructions to draw letter "J"
    MoveJ target_aSup1Dir2, v100, fine, pen\WObj:=Workobject_Paper;
    MoveL target_oSup1Dir2, v100, fine, pen\WObj:=Workobject_Paper;
    MoveL target_oInf2Dir2, v100, fine, pen\WObj:=Workobject_Paper;
    MoveC target_oInf1Dir1, v100, fine, pen\WObj:=Workobject_Paper;
    MoveL target_oInf1Esq2, v100, fine, pen\WObj:=Workobject_Paper;
    MoveL target_aInf1Esq2, v100, fine, pen\WObj:=Workobject_Paper;

	        ELSEIF "K" = character OR "k" = character THEN
	            ! Instructions to draw letter "K"
    MoveJ target_aInf1Esq1, v100, fine, pen\WObj:=Workobject_Paper;
    MoveL target_oInf1Esq1, v100, fine, pen\WObj:=Workobject_Paper;
    MoveL target_oSup1Esq1, v100, fine, pen\WObj:=Workobject_Paper;
    MoveL target_aSup1Esq1, v100, fine, pen\WObj:=Workobject_Paper;
    MoveL target_aCentroEsq1, v100, fine, pen\WObj:=Workobject_Paper;
    MoveL target_oCentroEsq1, v100, fine, pen\WObj:=Workobject_Paper;
    MoveL target_oSup1Dir2, v100, fine, pen\WObj:=Workobject_Paper;
    MoveL target_aSup1Dir2, v100, fine, pen\WObj:=Workobject_Paper;
    MoveL target_aInf1Dir2, v100, fine, pen\WObj:=Workobject_Paper;
    MoveL target_oInf1Dir2, v100, fine, pen\WObj:=Workobject_Paper;
    MoveL target_oCentroEsq1, v100, fine, pen\WObj:=Workobject_Paper;
    MoveL target_aCentroEsq1, v100, fine, pen\WObj:=Workobject_Paper;

	        ELSEIF "L" = character OR "l" = character THEN
	            ! Instructions to draw letter "L"
    MoveJ target_aSup1Esq1, v100, fine, pen\WObj:=Workobject_Paper;
    MoveL target_oSup1Esq1, v100, fine, pen\WObj:=Workobject_Paper;
    MoveL target_oInf1Esq1, v100, fine, pen\WObj:=Workobject_Paper;
    MoveL target_oInf1Dir2, v100, fine, pen\WObj:=Workobject_Paper;
    MoveL target_aInf1Dir2, v100, fine, pen\WObj:=Workobject_Paper;


	       ELSEIF "M" = character OR "m" = character THEN
		        ! Movement
		        MoveJ target_aInf1Esq1, v100, fine, pen\WObj:=Workobject_Paper;
		        MoveL target_oInf1Esq1, v100, fine, pen\WObj:=Workobject_Paper;
		        MoveL target_oSup1Esq1, v100, fine, pen\WObj:=Workobject_Paper;
		        MoveL target_oCentroCentro, v100, fine, pen\WObj:=Workobject_Paper;
		        MoveL target_oSup1Dir2, v100, fine, pen\WObj:=Workobject_Paper;
		        MoveL target_oInf1Dir2, v100, fine, pen\WObj:=Workobject_Paper;
		        MoveL target_aInf1Dir2, v100, fine, pen\WObj:=Workobject_Paper;
	            
	        ELSEIF "N" = character OR "n" = character THEN
		        ! Movement
		        MoveJ target_aInf1Esq1, v100, fine, pen\WObj:=Workobject_Paper;
		        MoveL target_oInf1Esq1, v100, fine, pen\WObj:=Workobject_Paper;
		        MoveL target_oSup1Esq1, v100, fine, pen\WObj:=Workobject_Paper;
		        MoveL target_oInf1Dir2, v100, fine, pen\WObj:=Workobject_Paper;
		        MoveL target_oSup1Dir2, v100, fine, pen\WObj:=Workobject_Paper;
		        MoveL target_aSup1Dir2, v100, fine, pen\WObj:=Workobject_Paper;

	        ELSEIF "O" = character OR "o" = character THEN
		        ! Movement
		        MoveJ target_aCentroEsq1, v100, fine, pen\WObj:=Workobject_Paper;
		        MoveL target_oCentroEsq1, v100, fine, pen\WObj:=Workobject_Paper;
		        MoveC target_oSup1Centro , target_oCentroDir2 , v100, fine, pen\WObj:=Workobject_Paper;
		        MoveC target_oInf1Centro , target_oCentroEsq1 , v100, fine, pen\WObj:=Workobject_Paper;
		        MoveL target_aCentroEsq1, v100, fine, pen\WObj:=Workobject_Paper;

	        ELSEIF "P" = character OR "p" = character THEN
		        ! Movement
		        MoveJ target_aInf1Esq1, v100, fine, pen\WObj:=Workobject_Paper;
		        MoveL target_oInf1Esq1, v100, fine, pen\WObj:=Workobject_Paper;
		        MoveL target_oSup1Esq1, v100, fine, pen\WObj:=Workobject_Paper;
		        MoveL target_oSup1Esq2, v100, fine, pen\WObj:=Workobject_Paper;
		        MoveC target_oSup2Dir2 , target_oCentroEsq2 , v100, fine, pen\WObj:=Workobject_Paper;
		        MoveL target_oCentroEsq1, v100, fine, pen\WObj:=Workobject_Paper;
		        MoveL target_aCentroEsq1, v100, fine, pen\WObj:=Workobject_Paper;
                           
	        ELSEIF "Q" = character OR "q" = character THEN
	            ! Instructions to draw letter "Q"
    MoveJ target_aInf1Esq1, v100, fine, pen\WObj:=Workobject_Paper;
    MoveL target_oInf1Esq1, v100, fine, pen\WObj:=Workobject_Paper;
    MoveL target_oInf2Esq1, v100, fine, pen\WObj:=Workobject_Paper;
    MoveL target_oSup2Esq1, v100, fine, pen\WObj:=Workobject_Paper;
    MoveC target_oSup1Esq2, v100, fine, pen\WObj:=Workobject_Paper;
    MoveL target_oInf2Esq1, v100, fine, pen\WObj:=Workobject_Paper;
    MoveL target_oSup1Centro, v100, fine, pen\WObj:=Workobject_Paper;
    MoveC target_oSup2Dir2, v100, fine, pen\WObj:=Workobject_Paper;
    MoveL target_oInf2Dir2, v100, fine, pen\WObj:=Workobject_Paper;
    MoveC target_oInf1Dir1, v100, fine, pen\WObj:=Workobject_Paper;
    MoveL target_oInf1Esq2, v100, fine, pen\WObj:=Workobject_Paper;
    MoveL target_aInf2Esq2, v100, fine, pen\WObj:=Workobject_Paper;
    MoveL target_aCentroCentro, v100, fine, pen\WObj:=Workobject_Paper;
    MoveL target_oCentroCentro, v100, fine, pen\WObj:=Workobject_Paper;
    MoveL target_oInf1Dir2, v100, fine, pen\WObj:=Workobject_Paper;
    MoveL target_aInf1Dir2, v100, fine, pen\WObj:=Workobject_Paper;

	        ELSEIF "R" = character OR "r" = character THEN
	            ! Instructions to draw letter "R"
    MoveJ target_aInf1Esq1, v100, fine, pen\WObj:=Workobject_Paper;
    MoveL target_oInf1Esq1, v100, fine, pen\WObj:=Workobject_Paper;
    MoveL target_oSup1Esq1, v100, fine, pen\WObj:=Workobject_Paper;
    MoveL target_oSup1Esq2, v100, fine, pen\WObj:=Workobject_Paper;
    MoveC target_oSup2Dir2 , target_oCentroEsq2 , v100, fine, pen\WObj:=Workobject_Paper;
    MoveL target_oCentroEsq1, v100, fine, pen\WObj:=Workobject_Paper;
    MoveL target_oInf1Dir2, v100, fine, pen\WObj:=Workobject_Paper;
    MoveL target_aInf1Dir2, v100, fine, pen\WObj:=Workobject_Paper;

	        ELSEIF "S" = character OR "s" = character THEN
		        ! Movement
		        MoveJ target_aSup2Dir2, v100, fine, pen\WObj:=Workobject_Paper;
		        MoveL target_oSup2Dir2, v100, fine, pen\WObj:=Workobject_Paper;
		        MoveC target_oSup1Centro , target_oSup2Esq1 , v100, fine, pen\WObj:=Workobject_Paper;
		        
                MoveL target_oCentroEsq1, v100, z150, pen\WObj:=Workobject_Paper;
                MoveL target_oCentroCentro, v100, fine, pen\WObj:=Workobject_Paper;
                MoveL target_oCentroDir2, v100, z150, pen\WObj:=Workobject_Paper;
                MoveL target_oInf2Dir2, v100, fine, pen\WObj:=Workobject_Paper;

                MoveC target_oInf1Centro , target_oInf2Esq1 , v100, fine, pen\WObj:=Workobject_Paper;
		        MoveL target_aInf2Esq1, v100, fine, pen\WObj:=Workobject_Paper;
                

	        ELSEIF "T" = character OR "t" = character THEN
		        ! Movement
		        MoveJ target_aSup1Esq1, v100, fine, pen\WObj:=Workobject_Paper;
		        MoveL target_oSup1Esq1, v100, fine, pen\WObj:=Workobject_Paper;
		        MoveL target_oSup1Dir2, v100, fine, pen\WObj:=Workobject_Paper;
		        MoveL target_oSup1Centro, v100, fine, pen\WObj:=Workobject_Paper;
		        MoveL target_oInf1Centro, v100, fine, pen\WObj:=Workobject_Paper;
		        MoveL target_aInf1Centro, v100, fine, pen\WObj:=Workobject_Paper;
                
	        ELSEIF "U" = character OR "u" = character THEN
		        ! Movement
		        MoveJ target_aSup1Esq1, v100, fine, pen\WObj:=Workobject_Paper;
		        MoveL target_oSup1Esq1, v100, fine, pen\WObj:=Workobject_Paper;
		        MoveL target_oInf2Esq1, v100, fine, pen\WObj:=Workobject_Paper;
		        MoveC target_oInf1Centro , target_oInf2Dir2 , v100, fine, pen\WObj:=Workobject_Paper;
		        MoveL target_oSup1Dir2, v100, fine, pen\WObj:=Workobject_Paper;	            
		        MoveL target_aSup1Dir2, v100, fine, pen\WObj:=Workobject_Paper;	            


	        ELSEIF "V" = character OR "v" = character THEN
		        ! Movement
		        MoveJ target_aSup1Esq1, v100, fine, pen\WObj:=Workobject_Paper;
		        MoveL target_oSup1Esq1, v100, fine, pen\WObj:=Workobject_Paper;
		        MoveL target_oInf1Centro, v100, fine, pen\WObj:=Workobject_Paper;
		        MoveL target_oSup1Dir2, v100, fine, pen\WObj:=Workobject_Paper;
		        MoveL target_aSup1Dir2, v100, fine, pen\WObj:=Workobject_Paper;
		        !MoveL target_aInf1Dir2, v100, fine, pen\WObj:=Workobject_Paper;

	        ELSEIF "W" = character OR "w" = character THEN
		        ! Movement
		        MoveJ target_aSup1Esq1, v100, fine, pen\WObj:=Workobject_Paper;
		        MoveL target_oSup1Esq1, v100, fine, pen\WObj:=Workobject_Paper;
		        MoveL target_oInf1Esq2, v100, fine, pen\WObj:=Workobject_Paper;
		        MoveL target_oCentroCentro, v100, fine, pen\WObj:=Workobject_Paper;
		        MoveL target_oInf1Dir1, v100, fine, pen\WObj:=Workobject_Paper;
		        MoveL target_oSup1Dir2, v100, fine, pen\WObj:=Workobject_Paper;
		        MoveL target_aSup1Dir2, v100, fine, pen\WObj:=Workobject_Paper;
		        !MoveL target_aInf1Dir2, v100, fine, pen\WObj:=Workobject_Paper;

	        ELSEIF "X" = character OR "x" = character THEN
		        ! Movement
		        MoveJ target_aSup1Esq1, v100, fine, pen\WObj:=Workobject_Paper;
		        MoveL target_oSup1Esq1, v100, fine, pen\WObj:=Workobject_Paper;
		        MoveL target_oInf1Dir2, v100, fine, pen\WObj:=Workobject_Paper;
		        MoveL target_aInf1Dir2, v100, fine, pen\WObj:=Workobject_Paper;
		        MoveL target_aSup1Dir2, v100, fine, pen\WObj:=Workobject_Paper;
		        MoveL target_oSup1Dir2, v100, fine, pen\WObj:=Workobject_Paper;
		        MoveL target_oInf1Esq1, v100, fine, pen\WObj:=Workobject_Paper;
		        MoveL target_aInf1Esq1, v100, fine, pen\WObj:=Workobject_Paper;
		        !MoveL target_aInf1Dir2, v100, fine, pen\WObj:=Workobject_Paper;

	        ELSEIF "Y" = character OR "y" = character THEN
		        ! Movement
		        MoveJ target_aSup1Esq1, v100, fine, pen\WObj:=Workobject_Paper;
		        MoveL target_oSup1Esq1, v100, fine, pen\WObj:=Workobject_Paper;
		        MoveL target_oCentroCentro, v100, fine, pen\WObj:=Workobject_Paper;
		        MoveL target_oSup1Dir2, v100, fine, pen\WObj:=Workobject_Paper;
		        MoveL target_aSup1Dir2, v100, fine, pen\WObj:=Workobject_Paper;
		        MoveL target_aCentroCentro, v100, fine, pen\WObj:=Workobject_Paper;
		        MoveL target_oCentroCentro, v100, fine, pen\WObj:=Workobject_Paper;
		        MoveL target_oInf1Centro, v100, fine, pen\WObj:=Workobject_Paper;
		        MoveL target_aInf1Centro, v100, fine, pen\WObj:=Workobject_Paper;
		        !MoveL target_aInf1Dir2, v100, fine, pen\WObj:=Workobject_Paper;
                 
	        ELSEIF "Z" = character OR "z" = character THEN
		        ! Movement
		        MoveJ target_aSup1Esq1, v100, fine, pen\WObj:=Workobject_Paper;
		        MoveL target_oSup1Esq1, v100, fine, pen\WObj:=Workobject_Paper;
		        MoveL target_oSup1Dir2, v100, fine, pen\WObj:=Workobject_Paper;
		        MoveL target_oInf1Esq1, v100, fine, pen\WObj:=Workobject_Paper;
		        MoveL target_oInf1Dir2, v100, fine, pen\WObj:=Workobject_Paper;
		        MoveL target_aInf1Dir2, v100, fine, pen\WObj:=Workobject_Paper;
		        
	        ELSEIF " " = character THEN
	            ! Instructions to draw letter " "
                MoveJ target_aInf1Esq1, v100, fine, pen\WObj:=Workobject_Paper;
	        ELSE

	        ENDIF
	      ENDIF
    ENDPROC    
ENDMODULE
